X: 141003
T: The ENNISKILLING DRAGOON
Q: "Slow."
%R: air
B: James Kerr "Merry Melodies" v.1 p.41 s.0 #3
Z: 2016 John Chambers <jc:trillian.mit.edu>
M: 2/4
L: 1/8
K: G
uD2 |\
G2AB | c2dc  | A2GG  | G2zud |\
g2eg | fde^c | A2B^c | d2zud |\
g2eg | fde^c | A2fe  | d2=cA |\
G2AB | c2dc  | A2GG  | G2 |]

%%sep 1 1 500
%%sep 1 1 500

